X:18
T: Nail That Catfish to the Tree
C: Steve Rosen
R: reel
M: 4/4
L: 1/8
K: Gmaj
DE |: "G"G2 BG AGBG | cGAG B2 BB | "D"ABAG F2   AB |  AGFD (3EFE D2  |
      "G"G2 BG AGBG | cGAG B2 BG | "D"ABAG FDEF    | "G"G4 G2 D2 :|]
     |: E4 G4      | c6   B2    | ABAG F2   AB |  AGFD (3EFE D2  |
      E4 G4      | c6   B2    |1 ABAG FDEF    | G4   G2    FF :|2 d2c2B2A2|G6      ||
